X:666
L:1/8
Q:1/4=120
M:3/4
K:Bb
"^Very Slow" d2 (d>c)(df) | d3 c B2 | c2 (B>c)(dc) | c3 F F2 | d2 (d>c)(df) | (d>c)(B>G) B2 | 
 F2 F2 (G>B) |{d} c3 B B2 :| g3 f d2 | f3 d B2 | c3 B G2 | B3 G F2 | g3 f d2 | f2 d B2 | c2 d2 f2 | 
 Tg4{^fg} =f2 | g3 f d2 | b4 d2 | c2 (B>c)(dc) | (cB)(BG) F2 | d2 (d>c)(df) | (d>c)(B>G) B2 | 
 F2 F2 (G>B) |{d} c3 B B2 ||

